src/assets/duotone/Messenger.svg

<svg width="24" height="24" viewBox="0 0 24 24"  xmlns="http://www.w3.org/2000/svg">
<path opacity="0.4" d="M5.68024 18.44V20.29C5.68024 21.06 6.50023 21.54 7.17023 21.16L9.03027 20.11C9.97027 20.38 10.9602 20.52 11.9902 20.52C17.5102 20.52 21.9902 16.37 21.9902 11.26C21.9902 6.14999 17.5102 2 11.9902 2C6.47023 2 1.99023 6.14999 1.99023 11.26C2.00023 14.15 3.44024 16.74 5.68024 18.44Z" />
<path d="M11.0206 9.56017L8.48052 12.5802C8.17052 12.9502 8.51052 13.5002 8.98052 13.3902L10.9905 12.9002C11.1205 12.8702 11.2505 12.8902 11.3605 12.9502L12.3705 13.5402C12.5805 13.6602 12.8505 13.6202 13.0005 13.4302L15.5005 10.4402C15.8105 10.0702 15.4605 9.51018 14.9905 9.64018L13.1705 10.1102C13.0505 10.1402 12.9205 10.1302 12.8105 10.0702L11.6305 9.45017C11.4305 9.33017 11.1706 9.38017 11.0206 9.56017Z" />
</svg>

<?xml version="1.0" encoding="UTF-8"?>
<svg width="24" height="24" viewBox="0 0 24 24" xmlns="http://www.w3.org/2000/svg">
 <path d="m5.6802 18.44v1.85c0 0.77 0.81999 1.25 1.49 0.87l1.86-1.05c0.94 0.27 1.9299 0.41 2.9599 0.41 5.52 0 10-4.15 10-9.26 0-5.11-4.48-9.26-10-9.26-5.52 0-10 4.15-10 9.26 0.01 2.89 1.45 5.48 3.69 7.18z" opacity=".4"/>
 <path d="m11.021 9.5602-2.5401 3.02c-0.31 0.37 0.03 0.92 0.5 0.81l2.01-0.49c0.13-0.03 0.26-0.01 0.37 0.05l1.01 0.59c0.21 0.12 0.48 0.08 0.63-0.11l2.5-2.99c0.31-0.37-0.04-0.93002-0.51-0.80002l-1.82 0.47002c-0.12 0.03-0.25 0.02-0.36-0.04l-1.18-0.62003c-0.2-0.12-0.4599-0.07-0.6099 0.11z"/>
</svg>
